X: 13582
T: Flying Statue, The
R: jig
M: 6/8
K: Dmajor
D2 F FEF|DFB AFE|DFF Adf|eaf edB|
Aff edB|AFB AFE|F2E FDF|B2 B AFE:|
FDD A,DD|FDF GFE|FDD A,DF|Adf edB|
Aff edB|AFB AFE|F2E FDF|B2 B AFE:|
DFA fdA|dAF GFE|EDF Adf|eaf edB|
Aff edB|AFB AFE|F2E FDF|B2 B AFE:|

